X: 39
T:Brian O'Niel. WI.039
M:6/8
Q:130
S:Wm Irwin, 1838 MS, AGG's Transcription
R:Jig
O:England
A:Lake District
Z:vmp.Chris Partington.2005
K:D
B|AFD D2d|B2d A2B|AFD DCD|EFE E2B|!
AFD D2d|B2d A2B|F2A E2F|DED D2:|!
|:f/g/|afd d2a|f2af2a|afd dcd|efe efg|!
fed B2d|A2B F2A|F2A E2F|DED D2:|]
